icons/desktop/16/downloads-16.svg

<svg width="16" height="16" viewBox="0 0 16 16" fill="none" xmlns="http://www.w3.org/2000/svg">
<path d="M14.25 11C14.6642 11 15 11.3358 15 11.75V13.0059C15 14.3855 13.9763 15.5763 12.5859 15.7373C11.2006 15.8973 9.66484 16 8 16C6.8148 16 5.49245 15.9473 4.05957 15.8057L3.43848 15.7393C2.05011 15.5796 1 14.3982 1 13.0029V11.75C1 11.3358 1.33579 11 1.75 11C2.16421 11 2.5 11.3358 2.5 11.75V13.0029C2.5 13.6376 2.97987 14.1765 3.60938 14.249L4.20703 14.3125C5.5866 14.4488 6.85948 14.5 8 14.5C9.60309 14.5 11.0814 14.401 12.4141 14.2471C13.0276 14.1759 13.5 13.6441 13.5 13.0059V11.75C13.5 11.3358 13.8358 11 14.25 11Z" fill="black"/>
<path d="M8 1C8.41421 1 8.75 1.33579 8.75 1.75V9.64746L10.9707 7.42676C11.2637 7.13376 11.7392 7.13376 12.0322 7.42676C12.3252 7.71976 12.3252 8.19528 12.0322 8.48828L8.88574 11.6338C8.64974 11.8698 8.33594 12 8.00195 12H8C7.666 12 7.35221 11.8698 7.11621 11.6338L3.96973 8.48828C3.67673 8.19529 3.67674 7.71976 3.96973 7.42676C4.26273 7.13376 4.73825 7.13376 5.03125 7.42676L7.25 9.64551V1.75C7.25 1.33579 7.58579 1 8 1Z" fill="black"/>
</svg>

<!-- This Source Code Form is subject to the terms of the Mozilla Public
   - License, v. 2.0. If a copy of the MPL was not distributed with this
   - file, You can obtain one at http://mozilla.org/MPL/2.0/. -->
<svg xmlns="http://www.w3.org/2000/svg" width="16" height="16" fill="context-fill" fill-opacity="context-fill-opacity" viewBox="0 0 16 16">
    <path d="M14.25 11a.75.75 0 0 1 .75.75v1.256c0 1.38-1.024 2.57-2.414 2.731a40 40 0 0 1-8.526.069l-.622-.067A2.76 2.76 0 0 1 1 13.003V11.75a.75.75 0 0 1 1.5 0v1.253c0 .635.48 1.174 1.11 1.246l.597.063a38.6 38.6 0 0 0 8.207-.065 1.24 1.24 0 0 0 1.086-1.241V11.75a.75.75 0 0 1 .75-.75" />
    <path d="M8 1a.75.75 0 0 1 .75.75v7.897l2.22-2.22a.75.75 0 0 1 1.062 1.061l-3.146 3.146c-.236.236-.55.366-.884.366H8c-.334 0-.648-.13-.884-.366L3.97 8.488a.75.75 0 0 1 1.06-1.061l2.22 2.219V1.75A.75.75 0 0 1 8 1" />
</svg>
